assets/Relieved face/Flat/relieved_face_flat.svg

<svg width="32" height="32" viewBox="0 0 32 32" fill="none" xmlns="http://www.w3.org/2000/svg">
<path d="M15.9989 29.9978C25.3333 29.9978 29.9978 23.7303 29.9978 15.9989C29.9978 8.26751 25.3333 2 15.9989 2C6.66443 2 2 8.26751 2 15.9989C2 23.7303 6.66443 29.9978 15.9989 29.9978Z" fill="#FFB02E"/>
<path d="M6.97436 10.6581C7.11781 10.2277 7.47637 9.55049 8.06927 8.98761C8.65367 8.4328 9.45211 8 10.5 8C10.7762 8 11 7.77614 11 7.5C11 7.22386 10.7762 7 10.5 7C9.14792 7 8.11302 7.5672 7.38076 8.26239C6.65699 8.94951 6.21555 9.77226 6.02567 10.3419C5.93835 10.6039 6.07993 10.887 6.3419 10.9743C6.60387 11.0617 6.88703 10.9201 6.97436 10.6581Z" fill="#402A32"/>
<path d="M25.0257 10.6581C24.8822 10.2277 24.5237 9.55049 23.9308 8.98761C23.3464 8.4328 22.5479 8 21.5 8C21.2239 8 21 7.77614 21 7.5C21 7.22386 21.2239 7 21.5 7C22.8521 7 23.887 7.5672 24.6193 8.26239C25.343 8.94951 25.7845 9.77226 25.9744 10.3419C26.0617 10.6039 25.9201 10.887 25.6581 10.9743C25.3962 11.0617 25.113 10.9201 25.0257 10.6581Z" fill="#402A32"/>
<path d="M7.70711 16.2929C7.31658 15.9024 6.68342 15.9024 6.29289 16.2929C5.90237 16.6834 5.90237 17.3166 6.29289 17.7071C6.81756 18.2318 8.14021 19 10 19C11.8598 19 13.1824 18.2318 13.7071 17.7071C14.0976 17.3166 14.0976 16.6834 13.7071 16.2929C13.3166 15.9024 12.6834 15.9024 12.2929 16.2929C12.1509 16.4349 11.3402 17 10 17C8.65979 17 7.8491 16.4349 7.70711 16.2929Z" fill="#402A32"/>
<path d="M19.7071 16.2929C19.3166 15.9024 18.6834 15.9024 18.2929 16.2929C17.9024 16.6834 17.9024 17.3166 18.2929 17.7071C18.8176 18.2318 20.1402 19 22 19C23.8598 19 25.1824 18.2318 25.7071 17.7071C26.0976 17.3166 26.0976 16.6834 25.7071 16.2929C25.3166 15.9024 24.6834 15.9024 24.2929 16.2929C24.1509 16.4349 23.3402 17 22 17C20.6598 17 19.8491 16.4349 19.7071 16.2929Z" fill="#402A32"/>
<path d="M11.8001 23.4C11.4687 22.9582 10.8419 22.8686 10.4001 23.2C9.95823 23.5314 9.86869 24.1582 10.2001 24.6C10.8907 25.5208 12.8883 27 16.0001 27C19.1118 27 21.1094 25.5208 21.8001 24.6C22.1314 24.1582 22.0419 23.5314 21.6001 23.2C21.1582 22.8686 20.5314 22.9582 20.2001 23.4C19.8907 23.8125 18.4883 25 16.0001 25C13.5118 25 12.1094 23.8125 11.8001 23.4Z" fill="#402A32"/>
</svg>

<svg xmlns="http://www.w3.org/2000/svg" width="32" height="32" fill="none"><path fill="#FFB02E" d="M15.999 29.998c9.334 0 13.999-6.268 13.999-14 0-7.73-4.665-13.998-14-13.998C6.665 2 2 8.268 2 15.999c0 7.731 4.664 13.999 13.999 13.999Z"/><path fill="#402A32" d="M6.974 10.658c.144-.43.502-1.108 1.095-1.67C8.654 8.433 9.452 8 10.5 8a.5.5 0 1 0 0-1c-1.352 0-2.387.567-3.12 1.262-.723.688-1.164 1.51-1.354 2.08a.5.5 0 1 0 .948.316ZM25.026 10.658c-.144-.43-.502-1.108-1.095-1.67C23.346 8.433 22.548 8 21.5 8a.5.5 0 0 1 0-1c1.352 0 2.387.567 3.12 1.262.723.688 1.165 1.51 1.354 2.08a.5.5 0 0 1-.948.316ZM7.707 16.293a1 1 0 0 0-1.414 1.414C6.818 18.232 8.14 19 10 19c1.86 0 3.182-.768 3.707-1.293a1 1 0 0 0-1.414-1.414C12.15 16.435 11.34 17 10 17c-1.34 0-2.15-.565-2.293-.707ZM19.707 16.293a1 1 0 0 0-1.414 1.414C18.818 18.232 20.14 19 22 19c1.86 0 3.182-.768 3.707-1.293a1 1 0 0 0-1.414-1.414C24.15 16.435 23.34 17 22 17c-1.34 0-2.15-.565-2.293-.707ZM11.8 23.4a1 1 0 0 0-1.6 1.2c.69.92 2.688 2.4 5.8 2.4 3.112 0 5.11-1.48 5.8-2.4a1 1 0 0 0-1.6-1.2c-.31.413-1.712 1.6-4.2 1.6-2.488 0-3.89-1.188-4.2-1.6Z"/></svg>
